X:1
T:Polska efter Elsa Siljebo
R:Polska
O: Fredrika, Lappland
M:3/4
L:1/8
K:Dm
|: (3A=B^c | d>A A<G G>E | F>D E<F E>^C | D>F A<d f>d | (3^cec Ac e>c | A=B/^c/ de f>e | ^c<e a7/ ^c/ | d2 d2- :| d2 ||
|: A=B/^c/ de f>e | ^c<e a4 | (3ac'a ea c>e | (3A=B^c d=c _BA | A=B/^c/ de f>e | ^c<e a4 | (3ac'a ea c>e | (3A=B^c d4 :|

